X:1
T:O nata sol
T:Benedetto Ferrari
T:Source : Musiche Varia a voce sola---Libro primo---Venetia---B.Magni--1633. Editor : André Vierendeels (03/01/17).
T:Notes : Original clefs : C4, F4 Original note values have been halved in 3-beat measures Figures in BC are notated in original print
T:O nata sol
T:©
T:©
T:©
T:©
C:Benedetto Ferrari
Z:©
%%score 1 { 2 | 3 }
L:1/8
Q:1/4=113
M:4/4
K:F
V:1 treble-8 nm="Tenor" snm="T"
V:2 treble nm="MusicXML Part"
V:3 bass 
V:1
 z4 c4- | c2 AA A4 | z AAA A3 G | G4 G4 | z Gcc cd_ee | z d2 d/c/ c4 | B8 | B2 BB BB B2- | %8
w: O|_ na- ta sol|per in- can- tar le|gen- ti|bel- lis- si- ma di Di- o|for- ma'e fa- ro-|ra,|Don- na pro- dat- ta sol|
w: Se|_ si mi- ra'il|bel vol- to sfa- vil-|lan- to|pos- s'io mo- rir' che l'a- do-|rar- lo e'l me-|no,|con- tr'i stra- li del sguar-|
w: Chi|_ fè di nul-|la si mi- ra- bil|co- re|fa- bi- co l'ho- mo pri- a|la Don- na po-|i,|pre- mi- nen- za re- al,|
 BBBF F G2 G | z2 GG G2 GG | G2 G2 z GAG | G8 | F8 |[M:6/4] z12 | z6 c4 c2 | B4 B2 A2 A3 G | %16
w: _ da- la na- tu- * ra,|per mi- ra- col del|mon- do, e de vi-|ven-|ti,||Ce- da,|ce- d'à le glo- rie|
w: * do e del bel se- no|di- ver- i'a- ce- ra'un|co- re di di- a-|man-|te||||
w: _ co- si frà no- * i|na- scon pri- ma- le|spi- ne e poi le|ro-|se||||
 AB cB AG FG AB cA | dc defF G6 | F6 z6 | z6 FG AB cA | d2 c2 B2 B4 A2 | B2 z2 z2 GA BG AB | %22
w: tue _ la _ _ _ ter- * * * ra'e'l- *|ciel _ _ _ _ le su-|e|la _ _ _ _ _|_ ter- ra sen- za|te bel- * * * * *|
w: ||||||
w: ||||||
 c3 c B2 A6 | z6 d2 e2 ^f2 | g6 G2 c2 B2 | A4 G2 G6 | z6 c2 d2 e2 | f6 F2 B2 A2 | G4 F2 F6 |] %29
w: * la non è,|e bel- l'è'il|ciel per- che so-|mi- gli'à te,|e bel- l'è'il|ciel per- che so-|mi- gli'à te.|
w: |||||||
w: |||||||
V:2
 z8 | z8 | z8 | z8 | z8 | z8 | z8 | z8 | z8 | z8 | z8 | z8 |"^Ceda""^Ceda" z8 |[M:6/4] z12 | z12 | %15
 z12 | z12 | z12 | z12 | z12 | z12 | z12 | z12 | z12 | z12 | z12 | z12 | z12 | z12 |] %29
V:3
"^BC" F,,8- | F,,8- | F,,8 |"^4" C,8- |"^b" C,8 |"^6""^4 3" D,4 F,4 | B,,8- | B,,8- | B,,4 _E,4- | %9
 E,8 |"^4""^6""^3-natural""^6-natural" D,4 D,4 |"^4 3" C,8 | F,,8 | %13
[M:6/4]"^6""^6""^6""^6" C4 C2 B,4 B,2 |"^6""^6""^6" A,3 A, G,2 F,G, A,B, C2 | %15
 G,A, B,C B,A, G,F, E,D, C,2 | F,4 E,2 D,4 C,2 |"^4 3" B,,A,, B,,G,, A,,F,, C,2 C,,4 | %18
 F,,6 F,G, A,B, CA, |"^6""^6""^6""^6""^6" D2 C2 B,2 A,4 G,2 |"^6""^6""^6""^b" F,2 _E,2 D,2 C,6 | %21
 B,,C, D,B,, C,D, _E,4 D,2 |"^6 5""^#" C,6 D,6 | D,2 E,2 ^F,2 G,6 |"^5 6 5" G,,2 A,,2 B,,2 C,6 | %25
"^4#" D,6 G,,6 | G,,2 A,,2 B,,2 C,6 |"^5 6 5" F,,2 G,,2 A,,2 B,,6 |"^4 3" C,6 F,,6 |] %29

